X: 12
T:Major Harmonized Scales
C:Mike Stangeland
N:
L:1/8
Q:1/4=120
M:4/4
K:C
z8 | "F"[F2A,2] "(Harmony 6th bel"[G2_B,2] [A2C2] [_B2D2] | [c2E2] [d2F2] [e2G2] [f2A2] | 
"(Harmony 3rd abo"[A2F2] [_B2G2] [c2A2] [d2B2] | [e2c2] [f2d2] [g2e2] [a2f2] | 
z8 | "F#"[^F2_B,2] "(Harmony 6th bel"[^G2=B,2] [_B2^C2] [=B2^D2] | [^c2F2] [^d2^F2] [f2^G2] [^f2_B2] | 
"(Harmony 3rd abo"[_B2^F2] [=B2^G2] [^c2_B2] [^d2=B2] | [f2^c2] [^f2^d2] [^g2=f2] [_b2^f2] | 
z8 | "G"[G2B,2] "(Harmony 6th bel"[A2C2] [B2D2] [c2E2] | [d2^F2] [e2G2] [^f2A2] [g2B2] | 
"(Harmony 3rd abo"[B2G2] [c2A2] [d2B2] [e2c2] | [^f2d2] [g2e2] [a2f2] [b2g2] | 
z8 | "G#"[^G2C2] "(Harmony 6th bel"[_B2^C2] [c2^D2] [^c2F2] | [^d2G2] [f2^G2] [g2_B2] [^g2c2] | 
"(Harmony 3rd abo"[c2^G2] [^c2_B2] [^d2=c2] [f2^c2] | [g2^d2] [^g2f2] [_b2=g2] [c'2^g2] | 
z8 | "A"[A2^C2] "(Harmony 6th bel"[B2D2] [^c2E2] [d2^F2] | [e2^G2] [^f2A2] [^g2B2] [a2^c2] | 
"(Harmony 3rd abo"[^c2A2] [d2B2] [e2c2] [^f2d2] | [^g2e2] [a2^f2] [b2g2] [^c'2a2] | 
z8 | "Bb"[_B2D2] "(Harmony 6th bel"[c2^D2] [d2F2] [^d2G2] | [f2A2] [g2_B2] [a2c2] [_b2d2] | 
"(Harmony 3rd abo"[d2_B2] [^d2c2] [f2=d2] [g2^d2] | [a2f2] [_b2g2] [c'2a2] [d'2b2] | 
z8 | "B"[B2^D2] "(Harmony 6th bel"[^c2E2] [^d2^F2] [e2^G2] | [^f2_B2] [^g2=B2] [_b2^c2] [=b2^d2] | 
"(Harmony 3rd abo"[^D2B,2] [E2^C2] [^F2D2] [^G2E2] | [_B2^F2] [=B2^G2] [^c2_B2] [^d2=B2] | 
z8 | "C"[c2E2] "(Harmony 6th bel"[d2F2] [e2G2] [f2A2] | [g2B2] [a2c2] [b2d2] [c'2e2] | 
"(Harmony 3rd abo"[E2C2] [F2D2] [G2E2] [A2F2] | [B2G2] [c2A2] [d2B2] [e2c2] | 
z8 | "C#"[^c2F2] "(Harmony 6th bel"[^d2^F2] [f2^G2] [^f2_B2] | [^g2c2] [_b2^c2] [c'2^d2] [^c'2f2] | 
"(Harmony 3rd abo"[F2^C2] [^F2^D2] [^G2=F2] [_B2^F2] | [c2^G2] [^c2_B2] [^d2=c2] [f2^c2] | 
z8 | "D"[d2^F2] "(Harmony 6th bel"[e2G2] [^f2A2] [g2B2] | [a2^c2] [b2d2] [^c'2e2] [d'2^f2] | 
"(Harmony 3rd abo"[^F2D2] [G2E2] [A2F2] [B2G2] | [^c2A2] [d2B2] [e2c2] [^f2d2] | 
z8 | "Eb"[^D2G,2] "(Harmony 6th bel"[F2^G,2] [G2_B,2] [^G2C2] | [_B2D2] [c2^D2] [d2F2] [^d2G2] | 
"(Harmony 3rd abo"[G2^D2] [^G2F2] [_B2=G2] [c2^G2] | [d2_B2] [^d2c2] [f2=d2] [g2^d2] | 
z8 | "E"[E2^G,2] "(Harmony 6th bel"[^F2A,2] [^G2B,2] [A2^C2] | [B2^D2] [^c2E2] [^d2^F2] [e2^G2] | 
"(Harmony 3rd abo"[^G2E2] [A2^F2] [B2G2] [^c2A2] | [^d2B2] [e2^c2] [^f2d2] [^g2e2] | 
z8 |

